app/dist/common/images/hexcel.svg

<svg height="18" width="18" xmlns="http://www.w3.org/2000/svg"><path d="m0 0h18v18h-18z" fill="#305da2"/><path d="m6.378 4h2.673l1.344 2.338-1.345 2.304h-2.706l-1.344-2.304zm4.605 2.713h2.656l1.361 2.338-1.361 2.287h-2.69l-1.359-2.287 1.394-2.338zm-4.605 2.663h2.673l1.344 2.338-1.345 2.286h-2.706l-1.344-2.287z" fill="#fff"/></svg>

<!-- by TradingView --><svg width="18" height="18" xmlns="http://www.w3.org/2000/svg"><path fill="#305DA2" d="M0 0h18v18H0z"/><path d="M6.378 4h2.673l1.344 2.338L9.05 8.642H6.344L5 6.338 6.378 4zm4.605 2.713h2.656L15 9.051l-1.361 2.287h-2.69L9.59 9.051l1.394-2.338zM6.378 9.376h2.673l1.344 2.338L9.05 14H6.344L5 11.713l1.378-2.337z" fill="#fff"/></svg>
